poi/svg/1001.svg

<?xml version="1.0" encoding="UTF-8" standalone="no"?>
<svg
   xmlns:dc="http://purl.org/dc/elements/1.1/"
   xmlns:cc="http://creativecommons.org/ns#"
   xmlns:rdf="http://www.w3.org/1999/02/22-rdf-syntax-ns#"
   xmlns:svg="http://www.w3.org/2000/svg"
   xmlns="http://www.w3.org/2000/svg"
   xmlns:sodipodi="http://sodipodi.sourceforge.net/DTD/sodipodi-0.dtd"
   xmlns:inkscape="http://www.inkscape.org/namespaces/inkscape"
   inkscape:version="1.0 (4035a4fb49, 2020-05-01)"
   sodipodi:docname="1001.svg"
   id="svg20"
   version="1.2"
   viewBox="0 0 42.519639 42.519639"
   height="14.999999mm"
   width="14.999999mm">
  <metadata
     id="metadata24">
    <rdf:RDF>
      <cc:Work
         rdf:about="">
        <dc:format>image/svg+xml</dc:format>
        <dc:type
           rdf:resource="http://purl.org/dc/dcmitype/StillImage" />
        <dc:title>Qt SVG Document</dc:title>
      </cc:Work>
    </rdf:RDF>
  </metadata>
  <sodipodi:namedview
     inkscape:current-layer="svg20"
     inkscape:window-maximized="0"
     inkscape:window-y="0"
     inkscape:window-x="0"
     inkscape:cy="47.780652"
     inkscape:cx="23.953486"
     inkscape:zoom="2.0651243"
     fit-margin-bottom="0"
     fit-margin-right="0"
     fit-margin-left="0"
     fit-margin-top="0"
     showgrid="false"
     id="namedview22"
     inkscape:window-height="480"
     inkscape:window-width="1034"
     inkscape:pageshadow="2"
     inkscape:pageopacity="0"
     guidetolerance="10"
     gridtolerance="10"
     objecttolerance="10"
     borderopacity="1"
     bordercolor="#666666"
     pagecolor="#ffffff" />
  <title
     id="title2">Qt SVG Document</title>
  <desc
     id="desc4">Generated with Qt</desc>
  <defs
     id="defs6" />
  <g
     transform="translate(5.25984,5.25984)"
     id="g18"
     stroke-linejoin="bevel"
     stroke-linecap="square"
     fill-rule="evenodd"
     stroke-width="1"
     stroke="#000000"
     fill="none">
    <g
       id="g10"
       font-style="normal"
       font-weight="400"
       font-size="7.8px"
       font-family="'MS Shell Dlg 2'"
       stroke="none"
       fill-opacity="1"
       fill="#1f78b4">
      <path
         id="path8"
         d="M 37.2598,16 C 37.2598,27.7415 27.7415,37.2598 16,37.2598 4.25851,37.2598 -5.25984,27.7415 -5.25984,16 -5.25984,4.25851 4.25851,-5.25984 16,-5.25984 27.7415,-5.25984 37.2598,4.25851 37.2598,16"
         fill-rule="evenodd"
         vector-effect="non-scaling-stroke" />
    </g>
    <g
       id="g14"
       font-style="normal"
       font-weight="400"
       font-size="7.8px"
       font-family="'MS Shell Dlg 2'"
       transform="translate(16.5669,12.0315)"
       stroke="none"
       fill-opacity="1"
       fill="#ffffff">
      <path
         id="path12"
         d="m 10.6782,-2.41992 c 0.5459,-0.15397 0.9693,-0.06649 1.2703,0.26245 0.3009,0.32894 0.4164,0.65438 0.3464,0.97632 L 11.749,9.44287 c -0.056,0.39193 -0.2274,0.73133 -0.5144,1.01833 -0.2869,0.2869 -0.6054,0.4934 -0.9553,0.6194 l -15.85205,6.3618 c -0.29395,0.14 -0.5844,0.147 -0.87134,0.021 -0.28695,-0.126 -0.50041,-0.308 -0.64038,-0.5459 -0.20996,-0.112 -0.59839,-0.3465 -1.16529,-0.7034 -0.56689,-0.3569 -1.15128,-0.7663 -1.75314,-1.2283 -0.6019,-0.4619 -1.1338,-0.9133 -1.5957,-1.3542 -0.4619,-0.4409 -0.6789,-0.8224 -0.6509,-1.1443 l 0.7768,-13.58447 c 0.056,-0.32194 0.2065,-0.57389 0.4515,-0.75586 0.2449,-0.18196 0.5704,-0.30094 0.9763,-0.35693 l 4.85008,-0.77686 c 0.05599,-0.40592 0.10498,-0.82934 0.14697,-1.27026 0.04199,-0.44092 0.06299,-0.78035 0.06299,-1.01831 0.05599,-0.99382 0.31494,-1.74968 0.77685,-2.26758 0.46192,-0.5179 1.30876,-0.84684 2.54053,-0.98682 0.741862,-0.08398 1.522216,-0.07698 2.341064,0.021 0.818846,0.09798 1.473226,0.34994 1.963136,0.75586 -0.37793,-0.15397 -0.81885,-0.24495 -1.32276,-0.27295 -0.503901,-0.02799 -1.042801,-0.014 -1.616694,0.04199 -1.203776,0.15397 -2.040116,0.47242 -2.509036,0.95533 -0.46891,0.48291 -0.74536,1.25626 -0.82934,2.32006 0,0.19597 -0.014,0.48291 -0.042,0.86084 -0.02799,0.37793 -0.05599,0.76286 -0.08398,1.15479 -0.04199,0.46191 -0.07699,0.93782 -0.10498,1.42773 l 0.81885,-0.20996 c 0,-0.20996 0.007,-0.45141 0.02099,-0.72436 0.014,-0.27295 0.028,-0.5599 0.042,-0.86084 0.01399,-0.30095 0.02799,-0.58089 0.04199,-0.83985 0.014,-0.25895 0.04199,-0.47241 0.08398,-0.64038 0.05599,-1.00781 0.30445,-1.74617 0.74536,-2.21509 0.44092,-0.46891 1.263268,-0.77335 2.467045,-0.91333 0.573893,-0.08398 1.119795,-0.11897 1.637695,-0.10498 0.5179,0.014 0.96932,0.09799 1.35425,0.25196 0.38493,0.15397 0.69287,0.38843 0.92383,0.70337 0.23095,0.31494 0.33243,0.73136 0.30444,1.24926 v 1.19678 c 0.08398,-0.02799 0.18896,-0.04899 0.31494,-0.06299 0.12598,-0.01399 0.27995,-0.04899 0.46191,-0.10498 0.16797,-0.02799 0.43742,0.007 0.80835,0.10498 0.37094,0.09798 0.78036,0.22746 1.22828,0.38843 0.44791,0.16097 0.89933,0.33594 1.35424,0.5249 0.45492,0.18897 0.88534,0.36743 1.29122,0.5354 -0.3219,-0.05599 -0.66133,-0.06298 -1.01827,-0.02099 -0.35693,0.04199 -0.71736,0.10498 -1.0813,0.18896 -2.1276,0.5739 -3.99975,1.02531 -5.61645,1.35425 -1.6167,0.32894 -3.005941,0.601888 -4.16773,0.818848 -1.16178,0.21696 -2.1241,0.402425 -2.88696,0.5563965 -0.76286,0.1539714 -1.37174,0.3534345 -1.82666,0.5983885 -0.45491,0.244955 -0.78385,0.563397 -0.98681,0.955327 -0.20297,0.39192 -0.30445,0.91682 -0.30445,1.5747 0,0.30795 -0.007,0.92733 -0.02099,1.85816 -0.014,0.93082 -0.028,1.95613 -0.042,3.07592 -0.01399,1.1198 -0.02099,2.23956 -0.02099,3.35936 0,1.1198 0.02799,2.0086 0.08398,2.6665 0.05599,0.5739 0.13298,1.0043 0.23096,1.2913 0.09798,0.2869 0.22396,0.4864 0.37793,0.5984 0,-0.196 0.014,-0.5389 0.04199,-1.0288 0.028,-0.4899 0.06999,-1.2353 0.12598,-2.2361 0.05599,-1.0008 0.12597,-2.3131 0.20996,-3.93679 0.08398,-1.6237 0.19596,-3.66732 0.33594,-6.13086 0.06998,-0.40592 0.23095,-0.69287 0.48291,-0.86084 0.25195,-0.16797 0.58089,-0.29394 0.98681,-0.37793 l 15.74705,-3.7373 m -7.26463,-3.2334 c 0,-0.16797 -0.04549,-0.32544 -0.13647,-0.47241 -0.09098,-0.14698 -0.31844,-0.24846 -0.68237,-0.30445 0.11198,0.11198 0.16797,0.27295 0.16797,0.48291 -0.05599,0.39193 -0.09799,0.79086 -0.12598,1.19678 -0.028,0.40593 -0.05599,0.76286 -0.08399,1.0708 -0.02799,0.37793 -0.06298,0.73487 -0.10498,1.0708 L 3.18262,-2.81885 C 3.23861,-3.0988 3.2911,-3.49772 3.34009,-4.01563 3.38908,-4.53353 3.41357,-5.07943 3.41357,-5.65332 M 0.831055,-6.34619 c -0.489909,0.08398 -0.8643395,0.17147 -1.123291,0.26245 -0.258952,0.09098 -0.458415,0.22046 -0.598389,0.38843 -0.139975,0.16797 -0.234455,0.37443 -0.283445,0.61938 -0.04899,0.24496 -0.08749,0.5564 -0.11548,0.93433 v 0.58789 c 0.23795,-0.028 0.549397,-0.06999 0.934325,-0.12598 0.3849288,-0.05599 0.878337,-0.11198 1.480225,-0.16797 0.05599,-0.32194 0.09798,-0.70337 0.12598,-1.14428 0.02799,-0.44092 0.04199,-0.90633 0.04199,-1.39624 -0.05599,0 -0.12598,0.007 -0.20996,0.02099 -0.083987,0.014 -0.167971,0.021 -0.251955,0.021 M 7.61279,4.65576 c 0.34994,0 0.71737,-0.13297 1.1023,-0.39892 0.38493,-0.26595 0.72436,-0.61589 1.01831,-1.04981 0.3639,-0.5459 0.5459,-1.14779 0.5459,-1.80566 0,-0.13998 -0.035,-0.31144 -0.105,-0.514407 C 10.1043,0.684001 9.95736,0.512533 9.7334,0.372559 9.67741,0.316569 9.60392,0.264079 9.51294,0.215088 9.42196,0.166097 9.33447,0.141602 9.25049,0.141602 8.84456,0.141602 8.44914,0.278076 8.06421,0.551025 7.67928,0.823975 7.37484,1.17741 7.15088,1.61133 6.74495,2.12923 6.54199,2.67513 6.54199,3.24902 c 0,0.5739 0.20296,0.97282 0.60889,1.19678 0.13997,0.13997 0.29394,0.20996 0.46191,0.20996 M 0.348145,4.92871 -5.06885,5.99951 -5.27881,9.61084 0.180176,7.80518 0.348145,4.92871 M 8.6416,7.88916 3.62354,9.90479 3.14063,13.1382 7.92773,10.7656 8.6416,7.88916 M 7.52881,10.6816 3.7915,12.4033 4.08545,9.98877 8.01172,8.66602 7.52881,10.6816"
         fill-rule="evenodd"
         vector-effect="none" />
    </g>
    <g
       id="g16"
       font-style="normal"
       font-weight="400"
       font-size="7.8px"
       font-family="'MS Shell Dlg 2'"
       stroke="none"
       fill-opacity="1"
       fill="#1f78b4" />
  </g>
</svg>

<?xml version="1.0" encoding="UTF-8" standalone="no"?>
<svg width="11.2889mm" height="11.2889mm"
 viewBox="0 0 32 32"
 xmlns="http://www.w3.org/2000/svg" xmlns:xlink="http://www.w3.org/1999/xlink"  version="1.2" baseProfile="tiny">
<title>Qt SVG Document</title>
<desc>Generated with Qt</desc>
<defs>
</defs>
<g fill="none" stroke="black" stroke-width="1" fill-rule="evenodd" stroke-linecap="square" stroke-linejoin="bevel" >

<g fill="#1f78b4" fill-opacity="1" stroke="none" transform="matrix(1,0,0,1,0,0)"
font-family="MS Shell Dlg 2" font-size="7.8" font-weight="400" font-style="normal" 
>
<path vector-effect="non-scaling-stroke" fill-rule="evenodd" d="M37.2598,16 C37.2598,27.7415 27.7415,37.2598 16,37.2598 C4.25851,37.2598 -5.25984,27.7415 -5.25984,16 C-5.25984,4.25851 4.25851,-5.25984 16,-5.25984 C27.7415,-5.25984 37.2598,4.25851 37.2598,16 "/>
</g>

<g fill="#ffffff" fill-opacity="1" stroke="none" transform="matrix(1,0,0,1,16.5669,12.0315)"
font-family="MS Shell Dlg 2" font-size="7.8" font-weight="400" font-style="normal" 
>
<path vector-effect="none" fill-rule="evenodd" d="M10.6782,-2.41992 C11.2241,-2.57389 11.6475,-2.48641 11.9485,-2.15747 C12.2494,-1.82853 12.3649,-1.50309 12.2949,-1.18115 L11.749,9.44287 C11.693,9.8348 11.5216,10.1742 11.2346,10.4612 C10.9477,10.7481 10.6292,10.9546 10.2793,11.0806 L-5.57275,17.4424 C-5.8667,17.5824 -6.15715,17.5894 -6.44409,17.4634 C-6.73104,17.3374 -6.9445,17.1554 -7.08447,16.9175 C-7.29443,16.8055 -7.68286,16.571 -8.24976,16.2141 C-8.81665,15.8572 -9.40104,15.4478 -10.0029,14.9858 C-10.6048,14.5239 -11.1367,14.0725 -11.5986,13.6316 C-12.0605,13.1907 -12.2775,12.8092 -12.2495,12.4873 L-11.4727,-1.09717 C-11.4167,-1.41911 -11.2662,-1.67106 -11.0212,-1.85303 C-10.7763,-2.03499 -10.4508,-2.15397 -10.0449,-2.20996 L-5.19482,-2.98682 C-5.13883,-3.39274 -5.08984,-3.81616 -5.04785,-4.25708 C-5.00586,-4.698 -4.98486,-5.03743 -4.98486,-5.27539 C-4.92887,-6.26921 -4.66992,-7.02507 -4.20801,-7.54297 C-3.74609,-8.06087 -2.89925,-8.38981 -1.66748,-8.52979 C-0.925618,-8.61377 -0.145264,-8.60677 0.673584,-8.50879 C1.49243,-8.41081 2.14681,-8.15885 2.63672,-7.75293 C2.25879,-7.9069 1.81787,-7.99788 1.31396,-8.02588 C0.810059,-8.05387 0.271159,-8.03988 -0.302734,-7.98389 C-1.50651,-7.82992 -2.34285,-7.51147 -2.81177,-7.02856 C-3.28068,-6.54565 -3.55713,-5.7723 -3.64111,-4.7085 C-3.64111,-4.51253 -3.65511,-4.22559 -3.68311,-3.84766 C-3.7111,-3.46973 -3.7391,-3.0848 -3.76709,-2.69287 C-3.80908,-2.23096 -3.84408,-1.75505 -3.87207,-1.26514 L-3.05322,-1.4751 C-3.05322,-1.68506 -3.04622,-1.92651 -3.03223,-2.19946 C-3.01823,-2.47241 -3.00423,-2.75936 -2.99023,-3.0603 C-2.97624,-3.36125 -2.96224,-3.64119 -2.94824,-3.90015 C-2.93424,-4.1591 -2.90625,-4.37256 -2.86426,-4.54053 C-2.80827,-5.54834 -2.55981,-6.2867 -2.1189,-6.75562 C-1.67798,-7.22453 -0.855632,-7.52897 0.348145,-7.66895 C0.922038,-7.75293 1.46794,-7.78792 1.98584,-7.77393 C2.50374,-7.75993 2.95516,-7.67594 3.34009,-7.52197 C3.72502,-7.368 4.03296,-7.13354 4.26392,-6.8186 C4.49487,-6.50366 4.59635,-6.08724 4.56836,-5.56934 L4.56836,-4.37256 C4.65234,-4.40055 4.75732,-4.42155 4.8833,-4.43555 C5.00928,-4.44954 5.16325,-4.48454 5.34521,-4.54053 C5.51318,-4.56852 5.78263,-4.53353 6.15356,-4.43555 C6.5245,-4.33757 6.93392,-4.20809 7.38184,-4.04712 C7.82975,-3.88615 8.28117,-3.71118 8.73608,-3.52222 C9.191,-3.33325 9.62142,-3.15479 10.0273,-2.98682 C9.7054,-3.04281 9.36597,-3.0498 9.00903,-3.00781 C8.6521,-2.96582 8.29167,-2.90283 7.92773,-2.81885 C5.80013,-2.24495 3.92798,-1.79354 2.31128,-1.4646 C0.69458,-1.13566 -0.694661,-0.862712 -1.85645,-0.645752 C-3.01823,-0.428792 -3.98055,-0.243327 -4.74341,-0.0893555 C-5.50627,0.0646159 -6.11515,0.264079 -6.57007,0.509033 C-7.02498,0.753988 -7.35392,1.07243 -7.55688,1.46436 C-7.75985,1.85628 -7.86133,2.38118 -7.86133,3.03906 C-7.86133,3.34701 -7.86833,3.96639 -7.88232,4.89722 C-7.89632,5.82804 -7.91032,6.85335 -7.92432,7.97314 C-7.93831,9.09294 -7.94531,10.2127 -7.94531,11.3325 C-7.94531,12.4523 -7.91732,13.3411 -7.86133,13.999 C-7.80534,14.5729 -7.72835,15.0033 -7.63037,15.2903 C-7.53239,15.5772 -7.40641,15.7767 -7.25244,15.8887 C-7.25244,15.6927 -7.23844,15.3498 -7.21045,14.8599 C-7.18245,14.37 -7.14046,13.6246 -7.08447,12.6238 C-7.02848,11.623 -6.9585,10.3107 -6.87451,8.68701 C-6.79053,7.06331 -6.67855,5.01969 -6.53857,2.55615 C-6.46859,2.15023 -6.30762,1.86328 -6.05566,1.69531 C-5.80371,1.52734 -5.47477,1.40137 -5.06885,1.31738 L10.6782,-2.41992 M3.41357,-5.65332 C3.41357,-5.82129 3.36808,-5.97876 3.2771,-6.12573 C3.18612,-6.27271 2.95866,-6.37419 2.59473,-6.43018 C2.70671,-6.3182 2.7627,-6.15723 2.7627,-5.94727 C2.70671,-5.55534 2.66471,-5.15641 2.63672,-4.75049 C2.60872,-4.34456 2.58073,-3.98763 2.55273,-3.67969 C2.52474,-3.30176 2.48975,-2.94482 2.44775,-2.60889 L3.18262,-2.81885 C3.23861,-3.0988 3.2911,-3.49772 3.34009,-4.01563 C3.38908,-4.53353 3.41357,-5.07943 3.41357,-5.65332 M0.831055,-6.34619 C0.341146,-6.26221 -0.0332845,-6.17472 -0.292236,-6.08374 C-0.551188,-5.99276 -0.750651,-5.86328 -0.890625,-5.69531 C-1.0306,-5.52734 -1.12508,-5.32088 -1.17407,-5.07593 C-1.22306,-4.83097 -1.26156,-4.51953 -1.28955,-4.1416 L-1.28955,-3.55371 C-1.0516,-3.58171 -0.740153,-3.6237 -0.355225,-3.67969 C0.0297038,-3.73568 0.523112,-3.79167 1.125,-3.84766 C1.18099,-4.1696 1.22298,-4.55103 1.25098,-4.99194 C1.27897,-5.43286 1.29297,-5.89827 1.29297,-6.38818 C1.23698,-6.38818 1.16699,-6.38118 1.08301,-6.36719 C0.999023,-6.35319 0.915039,-6.34619 0.831055,-6.34619 M7.61279,4.65576 C7.96273,4.65576 8.33016,4.52279 8.71509,4.25684 C9.10002,3.99089 9.43945,3.64095 9.7334,3.20703 C10.0973,2.66113 10.2793,2.05924 10.2793,1.40137 C10.2793,1.26139 10.2443,1.08993 10.1743,0.886963 C10.1043,0.684001 9.95736,0.512533 9.7334,0.372559 C9.67741,0.316569 9.60392,0.264079 9.51294,0.215088 C9.42196,0.166097 9.33447,0.141602 9.25049,0.141602 C8.84456,0.141602 8.44914,0.278076 8.06421,0.551025 C7.67928,0.823975 7.37484,1.17741 7.15088,1.61133 C6.74495,2.12923 6.54199,2.67513 6.54199,3.24902 C6.54199,3.82292 6.74495,4.22184 7.15088,4.4458 C7.29085,4.58577 7.44482,4.65576 7.61279,4.65576 M0.348145,4.92871 L-5.06885,5.99951 L-5.27881,9.61084 L0.180176,7.80518 L0.348145,4.92871 M8.6416,7.88916 L3.62354,9.90479 L3.14063,13.1382 L7.92773,10.7656 L8.6416,7.88916 M7.52881,10.6816 L3.7915,12.4033 L4.08545,9.98877 L8.01172,8.66602 L7.52881,10.6816"/>
</g>

<g fill="#1f78b4" fill-opacity="1" stroke="none" transform="matrix(1,0,0,1,0,0)"
font-family="MS Shell Dlg 2" font-size="7.8" font-weight="400" font-style="normal" 
>
</g>
</g>
</svg>
